modules/hawcons-filled/icons/icon-35-umbrella.svg

<?xml version="1.0" encoding="UTF-8" standalone="no"?>
<svg width="32px" height="32px" viewBox="0 0 32 32" version="1.1" xmlns="http://www.w3.org/2000/svg" xmlns:xlink="http://www.w3.org/1999/xlink" xmlns:sketch="http://www.bohemiancoding.com/sketch/ns">
    <!-- Generator: Sketch 3.0.3 (7891) - http://www.bohemiancoding.com/sketch -->
    <title>icon 35 umbrella</title>
    <desc>Created with Sketch.</desc>
    <defs></defs>
    <g id="Page-1" stroke="none" stroke-width="1" fill="none" fill-rule="evenodd" sketch:type="MSPage">
        <g id="icon-35-umbrella" sketch:type="MSArtboardGroup" fill="#929292">
            <path d="M27,14 L32,14 C32,12.8954304 30.8807119,12 29.5,12 C28.1192881,12 27,12.8954304 27,14 L27,14 Z M27,14 C27,12.8954304 25.8807119,12 24.5,12 C23.1192881,12 22,12.8954304 22,14 C22,12.8954304 20.8807119,12 19.5,12 C18.1192881,12 17,12.8954304 17,14 L17,14 L17,26.5 L17,28 C17,29.1122704 16.1045695,30 15,30 C13.8877296,30 13,29.1041023 13,27.9989566 L13,27.2476578 L13,26.5046844 C13,26.214035 13.2238576,26 13.5,26 C13.7680664,26 14,26.2259549 14,26.5046844 L14,27.1226578 L14,28.009222 C14,28.5564136 14.4438648,29 15,29 C15.5522847,29 16,28.5490248 16,28.009222 L16,25.120389 L16,14 C16,12.8954304 14.8807119,12 13.5,12 C12.1192881,12 11,12.8954304 11,14 C11,12.8954304 9.88071194,12 8.5,12 C7.11928806,12 6,12.8954304 6,14 C6,12.8954304 4.88071194,12 3.5,12 C2.11928806,12 1,12.8954304 1,14 C1,8.58508704 7.67099129,4.17539629 16,4.00510442 L16,2.49938448 C16,2.21612644 16.2238576,2 16.5,2 C16.7680664,2 17,2.22358205 17,2.49938448 L17,4.00510442 C25.3290087,4.17539629 32,8.58508704 32,14 L27,14 Z" id="umbrella" sketch:type="MSShapeGroup"></path>
        </g>
    </g>
</svg>

<svg width="32" height="32" viewBox="0 0 32 32" xmlns="http://www.w3.org/2000/svg"><path d="M27 14h5c0-1.105-1.12-2-2.5-2s-2.5.895-2.5 2zm0 0c0-1.105-1.12-2-2.5-2s-2.5.895-2.5 2c0-1.105-1.12-2-2.5-2s-2.5.895-2.5 2v14c0 1.112-.895 2-2 2-1.112 0-2-.896-2-2.001v-1.494c0-.291.224-.505.5-.505.268 0 .5.226.5.505v1.504c0 .547.444.991 1 .991a1 1 0 0 0 1-.99V14c0-1.105-1.12-2-2.5-2s-2.5.895-2.5 2c0-1.105-1.12-2-2.5-2S6 12.895 6 14c0-1.105-1.12-2-2.5-2S1 12.895 1 14c0-5.415 6.671-9.825 15-9.995V2.5c0-.283.224-.499.5-.499.268 0 .5.224.5.5v1.505c8.329.17 15 4.58 15 9.995h-5z" fill="#929292" fill-rule="evenodd"/></svg>
